X:1
T:Turkey in the Straw
L:1/8
M:4/4
I:linebreak $
K:G
V:1 treble
 BA |"G" GFGA GDB,C | DEDB, D2 GA | B2 B2 BAGA | "D7"B2 A2 A2 BA |$
"G" GFGA GDB,C | DEDB, D2 GA |  B2 d2 dBGA |1"D7" B2 A2 "G"G2 :|2"D7" B2 A2 "G"G4 |:$
"G" B d2 B d2 dd | B d2 B d2 |"C" c e2 c e2 ee |  c e2 c e2 ef |$
"G" g2 g2 d2 d2 | B2 B2 "D7"A2 GA |"G" B2 d2 dBGA |"D7" B2 A2 "G"G4 :|
